package/converter/svg/light/bracket-square-right.svg

<svg xmlns="http://www.w3.org/2000/svg" viewBox="0 0 192 512"><!-- Font Awesome Pro 6.0.0-alpha2 by @fontawesome - https://fontawesome.com License - https://fontawesome.com/license (Commercial License) --><path d="M160 80V432C160 440.822 152.822 448 144 448H48C39.178 448 32 455.178 32 464S39.178 480 48 480H144C170.467 480 192 458.467 192 432V80C192 53.533 170.467 32 144 32H48C39.178 32 32 39.178 32 48S39.178 64 48 64H144C152.822 64 160 71.178 160 80Z"/></svg>

<svg xmlns="http://www.w3.org/2000/svg" viewBox="0 0 192 512"><!--! Font Awesome Pro 6.6.0 by @fontawesome - https://fontawesome.com License - https://fontawesome.com/license (Commercial License) Copyright 2024 Fonticons, Inc. --><path d="M192 80c0-26.5-21.5-48-48-48L48 32c-8.8 0-16 7.2-16 16s7.2 16 16 16l96 0c8.8 0 16 7.2 16 16l0 352c0 8.8-7.2 16-16 16l-96 0c-8.8 0-16 7.2-16 16s7.2 16 16 16l96 0c26.5 0 48-21.5 48-48l0-352z"/></svg>
